X:15380
T:Short Coated Mary
G:fiddle reel from the Western Isles
M:4/4
L:1/8
K:EDor
% dorian/mixolydian hexatonic
E2B2 BABc|d2AF DEFD|   E2B2 BABc|d2AF E2E2:|
d2dB e2e2|d2d2 FFFD|[1 d2dB e2e2|d2AF E2E2:|
                    [2 E2B2 BABc|d2AF E2E2|]
